;FLAVOR:Marlin
;TIME:8064
;Filament used: 2.72423m
;Layer height: 0.12
;MINX:65.211
;MINY:85.091
;MINZ:0.12
;MAXX:167.709
;MAXY:144.788
;MAXZ:15.36
;Generated with Cura_SteamEngine 4.13.0
M140 S50
M105
M190 S50
M104 S200
M105
M109 S200
M82 ;absolute extrusion mode
; Ender 3 Custom Start G-code
G92 E0 ; Reset Extruder
G28 ; Home all axes
G1 Z2.0 F3000 ; Move Z Axis up little to prevent scratching of Heat Bed
G1 X0.1 Y20 Z0.3 F5000.0 ; Move to start position
G1 X0.1 Y200.0 Z0.3 F1500.0 E15 ; Draw the first line
G1 X0.4 Y200.0 Z0.3 F5000.0 ; Move to side a little
G1 X0.4 Y20 Z0.3 F1500.0 E30 ; Draw the second line
G92 E0 ; Reset Extruder
G1 Z2.0 F3000 ; Move Z Axis up little to prevent scratching of Heat Bed
G1 X5 Y20 Z0.3 F5000.0 ; Move over to prevent blob squish
G92 E0
G92 E0
G1 F2700 E-5
;LAYER_COUNT:128
;LAYER:0
M107
G0 F6000 X135.645 Y115.933 Z0.12
;TYPE:SKIRT
G1 F2700 E0
G1 F1200 X134.525 Y117.314 E0.03548
G1 X150.28 Y117.313 E0.34989
G1 X149.159 Y115.934 E0.38536
G1 X135.645 Y115.933 E0.65504
G0 F6000 X135.454 Y115.533
G1 F1200 X134.129 Y117.167 E0.69702
G1 X133.971 Y117.524 E0.70482
G1 X133.87 Y117.714 E0.70911
G1 X150.954 Y117.713 E1.05004
G1 X150.755 Y117.264 E1.05984
G1 X149.349 Y115.534 E1.10433
G1 X135.454 Y115.533 E1.38162
G0 F6000 X135.264 Y115.133
G1 F1200 X133.792 Y116.948 E1.42825
G1 X133.614 Y117.343 E1.4369
G1 X133.553 Y117.463 E1.43959
G1 X133.177 Y118.114 E1.45459
G1 X151.641 Y118.113 E1.82306
G1 X151.3 Y117.513 E1.83683
G1 X151.101 Y117.056 E1.84678
G1 X149.539 Y115.134 E1.8962
G1 X135.264 Y115.133 E2.18107
G0 F6000 X135.074 Y114.733
G1 F1200 X133.457 Y116.726 E2.23229
G1 X133.257 Y117.162 E2.24186
G1 X133.196 Y117.282 E2.24455
G1 X132.832 Y117.91 E2.25904
G1 X132.401 Y118.495 E2.27354
G1 X132.384 Y118.514 E2.27404
G1 X152.414 Y118.513 E2.67376
G1 X151.995 Y117.93 E2.68809
G1 X151.64 Y117.297 E2.70258
G1 X151.45 Y116.851 E2.71225
G1 X149.729 Y114.734 E2.7667
G1 X135.074 Y114.733 E3.05915
G0 F6000 X134.882 Y114.333
G1 F1200 X133.107 Y116.521 E3.11538
G1 X133.08 Y116.595 E3.11695
G1 X132.901 Y116.981 E3.12544
G1 X132.84 Y117.101 E3.12813
G1 X132.486 Y117.709 E3.14217
G1 X132.065 Y118.273 E3.15621
G1 X131.583 Y118.786 E3.17026
G1 X131.432 Y118.914 E3.17421
G1 X153.324 Y118.913 E3.61109
G1 X152.846 Y118.412 E3.62491
G1 X152.731 Y118.269 E3.62857
G1 X152.321 Y117.697 E3.64261
G1 X151.979 Y117.081 E3.65667
G1 X151.798 Y116.644 E3.66611
G1 X149.921 Y114.334 E3.72551
G1 X134.882 Y114.333 E4.02563
G0 F6000 X134.692 Y113.933
G1 F1200 X132.722 Y116.361 E4.08803
G1 X132.544 Y116.799 E4.09746
G1 X132.483 Y116.919 E4.10015
G1 X132.14 Y117.507 E4.11373
G1 X131.73 Y118.051 E4.12733
G1 X131.259 Y118.542 E4.1409
G1 X130.733 Y118.975 E4.1545
G1 X130.208 Y119.314 E4.16697
G1 X154.419 Y119.313 E4.65013
G1 X154.172 Y119.148 E4.65606
G1 X153.655 Y118.706 E4.66963
G1 X153.157 Y118.162 E4.68435
G1 X153.042 Y118.019 E4.68801
G1 X152.647 Y117.464 E4.7016
G1 X152.32 Y116.867 E4.71519
G1 X152.148 Y116.44 E4.72437
G1 X150.11 Y113.934 E4.78883
G1 X134.692 Y113.933 E5.09652
G0 F6000 X134.501 Y113.533
G1 F1200 X132.384 Y116.143 E5.16358
G1 X132.188 Y116.618 E5.17384
G1 X132.127 Y116.738 E5.17652
G1 X131.794 Y117.304 E5.18963
G1 X131.395 Y117.826 E5.20274
G1 X130.935 Y118.296 E5.21586
G1 X130.422 Y118.706 E5.22897
G1 X129.863 Y119.051 E5.24208
G1 X129.266 Y119.325 E5.25519
G1 X128.64 Y119.525 E5.2683
G1 X127.995 Y119.648 E5.28141
G1 X127.316 Y119.691 E5.29498
G1 X125.84 Y119.692 E5.32444
G1 X125.438 Y119.714 E5.33247
G1 X124.781 Y119.71 E5.34558
G1 X124.13 Y119.626 E5.35868
G1 X123.493 Y119.464 E5.3718
G1 X122.881 Y119.226 E5.3849
G1 X122.302 Y118.915 E5.39802
G1 X121.765 Y118.536 E5.41114
G1 X121.335 Y118.152 E5.42264
G1 X121.169 Y117.987 E5.42731
G1 X120.732 Y117.496 E5.44043
G1 X120.358 Y116.956 E5.45354
G1 X120.052 Y116.375 E5.46664
G1 X119.82 Y115.76 E5.47976
G1 X119.663 Y115.122 E5.49287
G1 X119.585 Y114.47 E5.50597
G1 X119.587 Y113.813 E5.51909
G1 X119.669 Y113.161 E5.5322
G1 X119.829 Y112.524 E5.54531
G1 X120.065 Y111.911 E5.55842
G1 X120.374 Y111.331 E5.57153
G1 X120.701 Y110.863 E5.58292
G1 X123.027 Y106.685 E5.67835
G1 X123.09 Y106.442 E5.68336
G1 X123.136 Y106.336 E5.68567
G1 X123.515 Y104.988 E5.71361
G1 X123.747 Y104.183 E5.73033
G1 X123.842 Y103.81 E5.73801
G1 X123.894 Y103.378 E5.74669
G1 X124.051 Y102.74 E5.7598
G1 X124.113 Y102.578 E5.76327
G1 X124.26 Y101.972 E5.77571
G1 X124.461 Y101.441 E5.78704
G1 X124.471 Y101.368 E5.78851
G1 X124.634 Y100.732 E5.80161
G1 X124.873 Y100.12 E5.81472
G1 X124.925 Y100.022 E5.81694
G1 X125.408 Y98.273 E5.85315
G1 X125.576 Y97.784 E5.86347
G1 X126.689 Y93.987 E5.94243
G1 X126.755 Y93.725 E5.94782
G1 X127.036 Y92.727 E5.96851
G1 X127.128 Y92.463 E5.97409
G1 X127.249 Y91.952 E5.98457
G1 X127.304 Y91.762 E5.98852
G1 X127.525 Y91.144 E6.00161
G1 X127.819 Y90.556 E6.01473
G1 X128.137 Y90.07 E6.02632
G1 X128.294 Y89.856 E6.03162
G1 X128.714 Y89.351 E6.04473
G1 X129.311 Y88.805 E6.06087
G1 X129.512 Y88.647 E6.06597
G1 X130.052 Y88.273 E6.07908
G1 X130.634 Y87.967 E6.09221
G1 X131.248 Y87.735 E6.1053
G1 X131.886 Y87.579 E6.11841
G1 X132.849 Y87.492 E6.13771
G1 X133.205 Y87.492 E6.14481
G1 X133.861 Y87.532 E6.15793
G1 X134.507 Y87.651 E6.17104
G1 X134.584 Y87.675 E6.17264
G1 X149.962 Y87.676 E6.47953
G1 X150.072 Y87.642 E6.48183
G1 X150.719 Y87.527 E6.49494
G1 X151.34 Y87.491 E6.50735
G1 X151.701 Y87.491 E6.51456
G1 X152.357 Y87.531 E6.52767
G1 X153.003 Y87.65 E6.54078
G1 X153.878 Y87.949 E6.55924
G1 X153.962 Y87.986 E6.56107
G1 X154.546 Y88.287 E6.57418
G1 X155.089 Y88.657 E6.58729
G1 X155.583 Y89.089 E6.60039
G1 X155.971 Y89.517 E6.61192
G1 X156.213 Y89.814 E6.61956
G1 X156.667 Y90.462 E6.63535
G1 X156.72 Y90.551 E6.63742
G1 X157.021 Y91.135 E6.65053
G1 X157.329 Y92.044 E6.66968
G1 X157.387 Y92.285 E6.67463
G1 X157.615 Y93.087 E6.69127
G1 X158.039 Y94.644 E6.72347
G1 X158.175 Y95.05 E6.73202
G1 X158.253 Y95.303 E6.7373
G1 X158.367 Y95.708 E6.7457
G1 X158.42 Y95.91 E6.74986
G1 X158.506 Y96.267 E6.75719
G1 X158.674 Y96.833 E6.76897
G1 X158.686 Y96.884 E6.77002
G1 X158.813 Y97.236 E6.77749
G1 X159.017 Y97.981 E6.7929
G1 X159.094 Y98.221 E6.79793
G1 X159.358 Y99.207 E6.8183
G1 X159.455 Y99.474 E6.82397
G1 X159.631 Y100.084 E6.83664
G1 X159.686 Y100.287 E6.84084
G1 X159.796 Y100.732 E6.84998
G1 X159.941 Y101.147 E6.85876
G1 X159.989 Y101.333 E6.86259
G1 X160.107 Y101.681 E6.86992
G1 X160.174 Y101.95 E6.87546
G1 X160.327 Y102.467 E6.88622
G1 X160.36 Y102.61 E6.88914
G1 X160.506 Y103.132 E6.89996
G1 X160.527 Y103.184 E6.90108
G1 X160.768 Y103.999 E6.91804
G1 X161.019 Y104.894 E6.93659
G1 X161.064 Y105.062 E6.94006
G1 X161.128 Y105.32 E6.94537
G1 X161.257 Y105.721 E6.95377
G1 X161.35 Y106.044 E6.96048
G1 X161.445 Y106.373 E6.96731
G1 X161.465 Y106.454 E6.96898
G1 X164.159 Y110.83 E7.07153
G1 X164.219 Y110.9 E7.07337
G1 X164.584 Y111.447 E7.08649
G1 X164.879 Y112.034 E7.0996
G1 X165.1 Y112.653 E7.11272
G1 X165.245 Y113.294 E7.12583
G1 X165.311 Y113.947 E7.13893
G1 X165.297 Y114.604 E7.15205
G1 X165.203 Y115.254 E7.16515
G1 X165.031 Y115.888 E7.17826
G1 X164.784 Y116.497 E7.19138
G1 X164.415 Y117.146 E7.20627
G1 X164.346 Y117.25 E7.20877
G1 X163.95 Y117.775 E7.22189
G1 X163.493 Y118.247 E7.235
G1 X162.983 Y118.661 E7.24811
G1 X162.426 Y119.009 E7.26121
G1 X161.831 Y119.287 E7.27432
G1 X161.206 Y119.491 E7.28744
G1 X160.843 Y119.572 E7.29486
G1 X160.545 Y119.628 E7.30091
G1 X159.893 Y119.71 E7.31403
G1 X159.237 Y119.712 E7.32712
G1 X159.181 Y119.713 E7.32824
G1 X158.54 Y119.858 E7.34135
G1 X158.015 Y119.91 E7.35188
G1 X158.519 Y120.069 E7.36243
G1 X159.118 Y120.341 E7.37556
G1 X159.678 Y120.683 E7.38865
G1 X160.194 Y121.09 E7.40176
G1 X160.655 Y121.558 E7.41487
G1 X161.151 Y122.22 E7.43138
G1 X161.269 Y122.406 E7.43578
G1 X161.586 Y122.981 E7.44888
G1 X161.832 Y123.591 E7.46201
G1 X162.001 Y124.225 E7.4751
G1 X162.092 Y124.876 E7.48822
G1 X162.104 Y125.533 E7.50133
G1 X162.036 Y126.186 E7.51443
G1 X161.888 Y126.827 E7.52756
G1 X161.599 Y127.59 E7.54384
G1 X156.565 Y138.333 E7.7806
G1 X156.25 Y138.91 E7.79372
G1 X155.868 Y139.444 E7.80682
G1 X155.424 Y139.929 E7.81995
G1 X154.924 Y140.355 E7.83305
G1 X154.574 Y140.598 E7.84156
G1 X154.475 Y140.661 E7.8439
G1 X153.9 Y140.979 E7.85701
G1 X153.291 Y141.225 E7.87012
G1 X152.657 Y141.396 E7.88322
G1 X152.006 Y141.488 E7.89634
G1 X151.576 Y141.505 E7.90493
G1 X133.27 Y141.506 E8.27025
G1 X132.615 Y141.466 E8.28334
G1 X131.968 Y141.347 E8.29647
G1 X131.342 Y141.15 E8.30957
G1 X130.743 Y140.878 E8.3227
G1 X130.371 Y140.662 E8.33128
G1 X130.272 Y140.599 E8.33362
G1 X129.74 Y140.213 E8.34674
G1 X129.259 Y139.766 E8.35984
G1 X128.836 Y139.263 E8.37296
G1 X128.477 Y138.713 E8.38606
G1 X128.281 Y138.334 E8.39458
G1 X123.247 Y127.591 E8.63134
G1 X123.005 Y126.981 E8.64443
G1 X122.839 Y126.345 E8.65755
G1 X122.751 Y125.694 E8.67066
G1 X122.743 Y125.037 E8.68377
G1 X122.815 Y124.384 E8.69688
G1 X122.966 Y123.744 E8.71001
G1 X123.193 Y123.128 E8.72311
G1 X123.577 Y122.407 E8.73941
G1 X123.695 Y122.221 E8.7438
G1 X124.08 Y121.689 E8.75691
G1 X124.527 Y121.207 E8.77003
G1 X125.029 Y120.784 E8.78313
G1 X125.579 Y120.424 E8.79625
G1 X126.168 Y120.134 E8.80935
G1 X126.788 Y119.917 E8.82246
G1 X127.43 Y119.777 E8.83557
G1 X128.255 Y119.714 E8.85208
G1 X156.208 Y119.713 E9.40991
G1 X155.946 Y119.642 E9.41533
G1 X155.337 Y119.394 E9.42845
G1 X154.764 Y119.074 E9.44155
G1 X154.233 Y118.686 E9.45467
G1 X153.754 Y118.237 E9.46778
G1 X153.469 Y117.911 E9.47642
G1 X153.354 Y117.768 E9.48008
G1 X152.974 Y117.232 E9.49319
G1 X152.662 Y116.654 E9.5063
G1 X152.501 Y116.242 E9.51513
G1 X150.3 Y113.534 E9.58477
G1 X134.501 Y113.533 E9.90005
G0 F6000 X134.311 Y113.133
G1 F1200 X132.047 Y115.924 E9.97177
G1 X131.831 Y116.437 E9.98288
G1 X131.77 Y116.557 E9.98556
G1 X131.449 Y117.101 E9.99817
G1 X131.061 Y117.6 E10.01078
G1 X130.614 Y118.047 E10.0234
G1 X130.113 Y118.433 E10.03602
G1 X129.568 Y118.753 E10.04863
G1 X128.987 Y119.002 E10.06125
G1 X128.379 Y119.176 E10.07387
G1 X127.754 Y119.271 E10.08648
G1 X127.316 Y119.291 E10.09523
G1 X125.818 Y119.292 E10.12513
G1 X125.416 Y119.314 E10.13316
G1 X124.784 Y119.309 E10.14577
G1 X124.158 Y119.224 E10.15838
G1 X123.547 Y119.061 E10.171
G1 X122.962 Y118.822 E10.18361
G1 X122.412 Y118.511 E10.19622
G1 X121.905 Y118.133 E10.20884
G1 X121.617 Y117.868 E10.21665
G1 X121.451 Y117.703 E10.22132
G1 X121.032 Y117.23 E10.23393
G1 X120.676 Y116.708 E10.24654
G1 X120.388 Y116.145 E10.25916
G1 X120.174 Y115.55 E10.27178
G1 X120.037 Y114.933 E10.28439
G1 X119.978 Y114.304 E10.297
G1 X120 Y113.672 E10.30962
G1 X120.101 Y113.048 E10.32223
G1 X120.279 Y112.442 E10.33484
G1 X120.533 Y111.863 E10.34746
G1 X121.042 Y111.071 E10.36624
G1 X123.401 Y106.832 E10.46306
G1 X123.485 Y106.521 E10.46948
G1 X123.524 Y106.431 E10.47144
G1 X123.899 Y105.099 E10.49906
G1 X124.137 Y104.274 E10.51619
G1 X124.234 Y103.892 E10.52406
G1 X124.296 Y103.403 E10.53389
G1 X124.455 Y102.791 E10.54651
G1 X124.507 Y102.634 E10.54981
G1 X124.664 Y102.022 E10.56242
G1 X124.852 Y101.549 E10.57258
G1 X124.873 Y101.397 E10.57564
G1 X125.037 Y100.786 E10.58827
G1 X125.277 Y100.202 E10.60087
G1 X125.303 Y100.154 E10.60195
G1 X125.793 Y98.38 E10.63868
G1 X125.957 Y97.906 E10.64869
G1 X127.072 Y94.103 E10.72778
G1 X127.14 Y93.834 E10.73332
G1 X127.421 Y92.836 E10.75401
G1 X127.515 Y92.568 E10.75967
G1 X127.633 Y92.064 E10.77
G1 X127.688 Y91.874 E10.77395
G1 X127.902 Y91.279 E10.78657
G1 X128.189 Y90.716 E10.79918
G1 X128.46 Y90.306 E10.80899
G1 X128.617 Y90.092 E10.81429
G1 X129.022 Y89.607 E10.8269
G1 X129.558 Y89.119 E10.84136
G1 X129.759 Y88.961 E10.84646
G1 X130.28 Y88.603 E10.85908
G1 X130.841 Y88.313 E10.87168
G1 X131.435 Y88.096 E10.8843
G1 X132.052 Y87.956 E10.89693
G1 X132.849 Y87.892 E10.91288
G1 X133.205 Y87.892 E10.91999
G1 X133.836 Y87.932 E10.9326
G1 X134.457 Y88.051 E10.94522
G1 X134.53 Y88.075 E10.94676
G1 X150.026 Y88.076 E11.256
G1 X150.213 Y88.02 E11.25989
G1 X150.837 Y87.916 E11.27252
G1 X151.34 Y87.891 E11.28257
G1 X151.701 Y87.891 E11.28977
G1 X152.332 Y87.931 E11.30239
G1 X152.953 Y88.05 E11.31501
G1 X153.717 Y88.315 E11.33114
G1 X153.801 Y88.352 E11.33298
G1 X154.362 Y88.643 E11.34559
G1 X154.882 Y89.002 E11.3582
G1 X155.352 Y89.425 E11.37082
G1 X155.661 Y89.77 E11.38006
G1 X155.903 Y90.067 E11.3877
G1 X156.323 Y90.667 E11.40232
G1 X156.376 Y90.756 E11.40439
G1 X156.664 Y91.318 E11.41699
G1 X156.94 Y92.138 E11.43426
G1 X157.001 Y92.392 E11.43947
G1 X157.229 Y93.192 E11.45607
G1 X157.657 Y94.761 E11.48852
G1 X157.796 Y95.177 E11.49728
G1 X157.868 Y95.411 E11.50216
G1 X157.982 Y95.816 E11.51056
G1 X158.031 Y96.003 E11.51442
G1 X158.111 Y96.336 E11.52125
G1 X158.117 Y96.35 E11.52155
G1 X158.284 Y96.923 E11.53347
G1 X158.298 Y96.985 E11.53473
G1 X158.427 Y97.342 E11.54231
G1 X158.621 Y98.05 E11.55696
G1 X158.708 Y98.324 E11.5627
G1 X158.975 Y99.322 E11.58331
G1 X159.071 Y99.585 E11.5889
G1 X159.247 Y100.195 E11.60157
G1 X159.297 Y100.383 E11.60545
G1 X159.401 Y100.803 E11.61409
G1 X159.554 Y101.248 E11.62348
G1 X159.593 Y101.397 E11.62655
G1 X159.719 Y101.777 E11.63454
G1 X159.791 Y102.068 E11.64052
G1 X159.943 Y102.58 E11.65118
G1 X159.973 Y102.71 E11.65384
G1 X160.121 Y103.239 E11.66481
G1 X160.144 Y103.297 E11.66605
G1 X160.383 Y104.107 E11.6829
G1 X160.634 Y105.002 E11.70145
G1 X160.675 Y105.157 E11.70465
G1 X160.742 Y105.429 E11.71024
G1 X160.876 Y105.844 E11.71895
G1 X160.962 Y106.143 E11.72515
G1 X160.982 Y106.22 E11.72674
G1 X161.057 Y106.471 E11.73197
G1 X161.092 Y106.611 E11.73485
G1 X163.836 Y111.068 E11.8393
G1 X163.915 Y111.161 E11.84173
G1 X164.262 Y111.69 E11.85436
G1 X164.539 Y112.258 E11.86697
G1 X164.742 Y112.856 E11.87957
G1 X164.868 Y113.476 E11.8922
G1 X164.915 Y114.106 E11.90481
G1 X164.882 Y114.738 E11.91744
G1 X164.769 Y115.36 E11.93005
G1 X164.579 Y115.963 E11.94267
G1 X164.315 Y116.537 E11.95528
G1 X164.081 Y116.925 E11.96432
G1 X164.012 Y117.029 E11.96681
G1 X163.63 Y117.533 E11.97943
G1 X163.188 Y117.984 E11.99203
G1 X162.692 Y118.376 E12.00465
G1 X162.15 Y118.702 E12.01727
G1 X161.572 Y118.958 E12.02989
G1 X160.769 Y119.179 E12.04651
G1 X160.471 Y119.235 E12.05256
G1 X159.844 Y119.312 E12.06516
G1 X159.212 Y119.31 E12.07778
G1 X159.024 Y119.342 E12.08158
G1 X158.406 Y119.474 E12.09419
G1 X157.776 Y119.526 E12.10681
G1 X157.144 Y119.499 E12.11943
G1 X156.521 Y119.392 E12.13205
G1 X155.916 Y119.207 E12.14467
G1 X155.34 Y118.947 E12.15728
G1 X154.801 Y118.617 E12.16989
G1 X154.308 Y118.222 E12.1825
G1 X153.781 Y117.66 E12.19788
G1 X153.666 Y117.517 E12.20154
G1 X153.301 Y117.001 E12.21415
G1 X153.005 Y116.442 E12.22677
G1 X152.854 Y116.041 E12.23533
G1 X150.491 Y113.134 E12.31009
G1 X134.311 Y113.133 E12.63298
G0 F6000 X134.12 Y112.733
G1 F1200 X131.71 Y115.703 E12.7093
G1 X131.706 Y115.718 E12.70961
G1 X131.475 Y116.255 E12.72128
G1 X131.414 Y116.375 E12.72397
G1 X131.104 Y116.897 E12.73608
G1 X130.728 Y117.373 E12.74819
G1 X130.293 Y117.795 E12.76028
G1 X129.807 Y118.157 E12.77237
G1 X129.277 Y118.451 E12.78447
G1 X128.712 Y118.673 E12.79658
G1 X128.124 Y118.819 E12.80867
G1 X127.316 Y118.891 E12.82486
G1 X125.814 Y118.892 E12.85484
G1 X125.394 Y118.915 E12.86323
G1 X124.788 Y118.908 E12.87532
G1 X124.188 Y118.822 E12.88742
G1 X123.604 Y118.657 E12.89953
G1 X123.048 Y118.418 E12.91161
G1 X122.527 Y118.107 E12.92372
G1 X121.899 Y117.585 E12.94001
G1 X121.733 Y117.42 E12.94468
G1 X121.332 Y116.965 E12.95679
G1 X120.995 Y116.461 E12.96889
G1 X120.726 Y115.917 E12.981
G1 X120.532 Y115.343 E12.99309
G1 X120.414 Y114.748 E13.00519
G1 X120.376 Y114.143 E13.01729
G1 X120.418 Y113.538 E13.02939
