;FLAVOR:Marlin
;TIME:8090
;Filament used: 2.72966m
;Layer height: 0.12
;MINX:40.211
;MINY:85.091
;MINZ:0.12
;MAXX:192.732
;MAXY:144.788
;MAXZ:15.36
;Generated with Cura_SteamEngine 4.13.0
M140 S50
M105
M190 S50
M104 S200
M105
M109 S200
M82 ;absolute extrusion mode
; Ender 3 Custom Start G-code
G92 E0 ; Reset Extruder
G28 ; Home all axes
G1 Z2.0 F3000 ; Move Z Axis up little to prevent scratching of Heat Bed
G1 X0.1 Y20 Z0.3 F5000.0 ; Move to start position
G1 X0.1 Y200.0 Z0.3 F1500.0 E15 ; Draw the first line
G1 X0.4 Y200.0 Z0.3 F5000.0 ; Move to side a little
G1 X0.4 Y20 Z0.3 F1500.0 E30 ; Draw the second line
G92 E0 ; Reset Extruder
G1 Z2.0 F3000 ; Move Z Axis up little to prevent scratching of Heat Bed
G1 X5 Y20 Z0.3 F5000.0 ; Move over to prevent blob squish
G92 E0
G92 E0
G1 F2700 E-5
;LAYER_COUNT:128
;LAYER:0
M107
G0 F6000 X159.525 Y117.314 Z0.12
;TYPE:SKIRT
G1 F2700 E0
G1 F1200 X175.281 Y117.314 E0.31443
G1 X174.159 Y115.934 E0.34992
G1 X160.645 Y115.933 E0.61961
G1 X159.525 Y117.314 E0.65509
G0 F6000 X159.129 Y117.167
G1 F1200 X158.971 Y117.524 E0.66288
G1 X158.87 Y117.714 E0.66718
G1 X175.958 Y117.714 E1.00819
G1 X175.931 Y117.666 E1.00928
G1 X175.757 Y117.265 E1.01801
G1 X174.35 Y115.534 E1.06252
G1 X160.454 Y115.533 E1.33983
G1 X159.129 Y117.167 E1.38182
G0 F6000 X158.792 Y116.948
G1 F1200 X158.614 Y117.343 E1.39046
G1 X158.553 Y117.463 E1.39315
G1 X158.177 Y118.114 E1.40815
G1 X176.641 Y118.114 E1.77662
G1 X176.271 Y117.451 E1.79177
G1 X176.104 Y117.056 E1.80033
G1 X174.54 Y115.134 E1.84978
G1 X160.264 Y115.133 E2.13467
G1 X158.792 Y116.948 E2.18131
G0 F6000 X158.457 Y116.726
G1 F1200 X158.257 Y117.162 E2.19088
G1 X158.196 Y117.282 E2.19357
G1 X157.832 Y117.91 E2.20805
G1 X157.401 Y118.495 E2.22255
G1 X157.383 Y118.514 E2.22307
G1 X177.416 Y118.514 E2.62285
G1 X177.38 Y118.469 E2.624
G1 X176.962 Y117.874 E2.63852
G1 X176.612 Y117.238 E2.653
G1 X176.452 Y116.852 E2.66134
G1 X174.73 Y114.734 E2.71582
G1 X160.074 Y114.733 E3.00829
G1 X158.457 Y116.726 E3.05951
G0 F6000 X158.08 Y116.595
G1 F1200 X157.901 Y116.981 E3.068
G1 X157.84 Y117.101 E3.07069
G1 X157.486 Y117.709 E3.08473
G1 X157.065 Y118.273 E3.09877
G1 X156.583 Y118.786 E3.11282
G1 X156.432 Y118.914 E3.11677
G1 X178.31 Y118.914 E3.55337
G1 X178.066 Y118.672 E3.56023
G1 X177.81 Y118.368 E3.56816
G1 X177.694 Y118.221 E3.57189
G1 X177.29 Y117.644 E3.58595
G1 X176.954 Y117.026 E3.59999
G1 X176.8 Y116.645 E3.60819
G1 X174.921 Y114.334 E3.66763
G1 X159.882 Y114.333 E3.96775
G1 X158.107 Y116.521 E4.02397
G1 X158.08 Y116.595 E4.02554
G0 F6000 X157.722 Y116.361
G1 F1200 X157.544 Y116.799 E4.03498
G1 X157.483 Y116.919 E4.03767
G1 X157.14 Y117.507 E4.05125
G1 X156.73 Y118.051 E4.06484
G1 X156.259 Y118.542 E4.07842
G1 X155.733 Y118.975 E4.09202
G1 X155.208 Y119.314 E4.10449
G1 X179.419 Y119.314 E4.58765
G1 X179.167 Y119.145 E4.5937
G1 X178.65 Y118.701 E4.6073
G1 X178.124 Y118.12 E4.62294
G1 X178.008 Y117.973 E4.62668
G1 X177.618 Y117.415 E4.64026
G1 X177.297 Y116.814 E4.65386
G1 X177.151 Y116.443 E4.66182
G1 X175.111 Y113.934 E4.72635
G1 X159.692 Y113.933 E5.03405
G1 X157.722 Y116.361 E5.09645
G0 F6000 X157.188 Y116.618
G1 F1200 X157.127 Y116.738 E5.09913
G1 X156.794 Y117.304 E5.11224
G1 X156.395 Y117.826 E5.12535
G1 X155.935 Y118.296 E5.13848
G1 X155.422 Y118.706 E5.15158
G1 X154.863 Y119.051 E5.16469
G1 X154.266 Y119.325 E5.1778
G1 X153.64 Y119.525 E5.19091
G1 X152.995 Y119.648 E5.20402
G1 X152.316 Y119.691 E5.21759
G1 X150.841 Y119.692 E5.24703
G1 X150.44 Y119.714 E5.25504
G1 X149.783 Y119.71 E5.26815
G1 X149.131 Y119.626 E5.28127
G1 X148.495 Y119.464 E5.29437
G1 X147.882 Y119.226 E5.30749
G1 X147.304 Y118.915 E5.32059
G1 X146.767 Y118.536 E5.33371
G1 X146.336 Y118.152 E5.34523
G1 X146.165 Y117.982 E5.35004
G1 X145.728 Y117.491 E5.36316
G1 X145.354 Y116.951 E5.37627
G1 X145.048 Y116.369 E5.38939
G1 X144.815 Y115.755 E5.40249
G1 X144.659 Y115.117 E5.4156
G1 X144.581 Y114.465 E5.4287
G1 X144.583 Y113.808 E5.44182
G1 X144.665 Y113.156 E5.45493
G1 X144.825 Y112.519 E5.46804
G1 X145.061 Y111.906 E5.48115
G1 X145.37 Y111.326 E5.49426
G1 X145.723 Y110.819 E5.50659
G1 X145.743 Y110.794 E5.50723
G1 X148.046 Y106.655 E5.60175
G1 X148.113 Y106.426 E5.60651
G1 X148.223 Y106.092 E5.61353
G1 X148.488 Y105.093 E5.63416
G1 X148.927 Y103.549 E5.66619
G1 X149.039 Y102.941 E5.67853
G1 X149.236 Y102.314 E5.69164
G1 X149.356 Y102.063 E5.69719
G1 X149.387 Y101.975 E5.69906
G1 X149.433 Y101.517 E5.70824
G1 X149.579 Y100.876 E5.72136
G1 X149.801 Y100.258 E5.73447
G1 X149.947 Y99.978 E5.74077
G1 X150.033 Y99.719 E5.74621
G1 X150.065 Y99.634 E5.74803
G1 X150.412 Y98.363 E5.77432
G1 X150.433 Y98.26 E5.77642
G1 X150.602 Y97.625 E5.78953
G1 X150.676 Y97.441 E5.79349
G1 X151.341 Y95.216 E5.83983
G1 X151.423 Y94.965 E5.8451
G1 X151.462 Y94.855 E5.84743
G1 X151.849 Y93.404 E5.8774
G1 X152.022 Y92.765 E5.89061
G1 X152.158 Y92.362 E5.8991
G1 X152.229 Y92.055 E5.90538
G1 X152.416 Y91.425 E5.9185
G1 X152.678 Y90.823 E5.9316
G1 X153.144 Y90.068 E5.94931
G1 X153.406 Y89.713 E5.95811
G1 X153.828 Y89.21 E5.97121
G1 X154.307 Y88.761 E5.98432
G1 X154.838 Y88.373 E5.99744
G1 X155.412 Y88.053 E6.01055
G1 X155.817 Y87.878 E6.01936
G1 X155.89 Y87.85 E6.02092
G1 X156.517 Y87.653 E6.03404
G1 X157.163 Y87.533 E6.04715
G1 X157.824 Y87.492 E6.06036
G1 X158.205 Y87.492 E6.06797
G1 X158.861 Y87.532 E6.08108
G1 X159.507 Y87.651 E6.09419
G1 X159.584 Y87.675 E6.0958
G1 X174.962 Y87.676 E6.40268
G1 X175.072 Y87.642 E6.40498
G1 X175.719 Y87.527 E6.4181
G1 X176.34 Y87.491 E6.43051
G1 X176.709 Y87.491 E6.43787
G1 X177.365 Y87.531 E6.45099
G1 X178.011 Y87.65 E6.4641
G1 X178.715 Y87.877 E6.47886
G1 X178.79 Y87.907 E6.48047
G1 X179.384 Y88.188 E6.49358
G1 X179.939 Y88.539 E6.50669
G1 X180.448 Y88.954 E6.5198
G1 X181.056 Y89.618 E6.53776
G1 X181.305 Y89.94 E6.54589
G1 X181.674 Y90.483 E6.55899
G1 X181.975 Y91.067 E6.5721
G1 X182.194 Y91.654 E6.5846
G1 X182.378 Y92.256 E6.59716
G1 X182.866 Y93.98 E6.63292
G1 X183.255 Y95.37 E6.66172
G1 X183.368 Y95.727 E6.6692
G1 X183.488 Y96.173 E6.67841
G1 X183.53 Y96.361 E6.68226
G1 X183.623 Y96.606 E6.68749
G1 X183.728 Y96.955 E6.69476
G1 X184.041 Y98.079 E6.71804
G1 X184.122 Y98.304 E6.72282
G1 X184.268 Y98.946 E6.73596
G1 X184.276 Y98.994 E6.73693
G1 X185.331 Y102.515 E6.81028
G1 X185.721 Y103.884 E6.83869
G1 X185.828 Y104.22 E6.84572
G1 X185.891 Y104.43 E6.8501
G1 X186.138 Y105.33 E6.86872
G1 X186.191 Y105.478 E6.87186
G1 X186.355 Y106.024 E6.88324
G1 X186.473 Y106.472 E6.89248
G1 X189.178 Y110.84 E6.99501
G1 X189.309 Y110.999 E6.99912
G1 X189.662 Y111.553 E7.01223
G1 X189.944 Y112.146 E7.02534
G1 X190.153 Y112.769 E7.03845
G1 X190.285 Y113.413 E7.05157
G1 X190.337 Y114.068 E7.06468
G1 X190.309 Y114.724 E7.07778
G1 X190.202 Y115.372 E7.09089
G1 X190.017 Y116.003 E7.10401
G1 X189.757 Y116.606 E7.11712
G1 X189.426 Y117.173 E7.13022
G1 X189.161 Y117.535 E7.13917
G1 X189.008 Y117.727 E7.14407
G1 X188.568 Y118.215 E7.15718
G1 X188.072 Y118.646 E7.1703
G1 X187.528 Y119.014 E7.1834
G1 X186.943 Y119.312 E7.1965
G1 X186.325 Y119.538 E7.20964
G1 X185.686 Y119.686 E7.22273
G1 X185.032 Y119.756 E7.23585
G1 X184.375 Y119.746 E7.24896
G1 X184.154 Y119.72 E7.25341
G1 X183.535 Y119.858 E7.26606
G1 X183.01 Y119.91 E7.27659
G1 X183.519 Y120.07 E7.28724
G1 X184.117 Y120.342 E7.30035
G1 X184.678 Y120.684 E7.31346
G1 X185.193 Y121.092 E7.32657
G1 X185.655 Y121.559 E7.33968
G1 X186.15 Y122.221 E7.35618
G1 X186.268 Y122.407 E7.36057
G1 X186.585 Y122.982 E7.37367
G1 X186.831 Y123.592 E7.3868
G1 X187 Y124.226 E7.39989
G1 X187.091 Y124.877 E7.41301
G1 X187.103 Y125.534 E7.42613
G1 X187.035 Y126.187 E7.43923
G1 X186.887 Y126.828 E7.45236
G1 X186.598 Y127.591 E7.46864
G1 X181.565 Y138.333 E7.70537
G1 X181.25 Y138.91 E7.71849
G1 X180.868 Y139.444 E7.73159
G1 X180.424 Y139.928 E7.7447
G1 X179.924 Y140.355 E7.75782
G1 X179.574 Y140.598 E7.76632
G1 X179.475 Y140.661 E7.76866
G1 X178.9 Y140.979 E7.78178
G1 X178.291 Y141.225 E7.79488
G1 X177.657 Y141.396 E7.80799
G1 X177.006 Y141.488 E7.82111
G1 X176.576 Y141.505 E7.8297
G1 X158.27 Y141.506 E8.19501
G1 X157.615 Y141.466 E8.20811
G1 X156.968 Y141.347 E8.22124
G1 X156.342 Y141.15 E8.23433
G1 X155.743 Y140.878 E8.24746
G1 X155.371 Y140.662 E8.25605
G1 X155.272 Y140.599 E8.25839
G1 X154.74 Y140.213 E8.2715
G1 X154.259 Y139.766 E8.28461
G1 X153.836 Y139.263 E8.29772
G1 X153.477 Y138.713 E8.31083
G1 X153.281 Y138.334 E8.31935
G1 X148.247 Y127.591 E8.5561
G1 X148.005 Y126.981 E8.5692
G1 X147.839 Y126.345 E8.58232
G1 X147.751 Y125.694 E8.59543
G1 X147.743 Y125.037 E8.60854
G1 X147.815 Y124.384 E8.62165
G1 X147.966 Y123.744 E8.63477
G1 X148.193 Y123.128 E8.64787
G1 X148.577 Y122.407 E8.66417
G1 X148.695 Y122.221 E8.66857
G1 X149.08 Y121.689 E8.68167
G1 X149.527 Y121.207 E8.69479
G1 X150.029 Y120.784 E8.70789
G1 X150.579 Y120.424 E8.72101
G1 X151.168 Y120.134 E8.73411
G1 X151.788 Y119.917 E8.74722
G1 X152.43 Y119.777 E8.76033
G1 X153.255 Y119.714 E8.77685
G1 X181.211 Y119.714 E9.33474
G1 X180.94 Y119.64 E9.34034
G1 X180.332 Y119.391 E9.35346
G1 X179.759 Y119.071 E9.36655
G1 X179.229 Y118.683 E9.37966
G1 X178.75 Y118.233 E9.39278
G1 X178.438 Y117.872 E9.4023
G1 X178.322 Y117.725 E9.40604
G1 X177.947 Y117.186 E9.41914
G1 X177.64 Y116.605 E9.43225
G1 X177.502 Y116.241 E9.44002
G1 X175.301 Y113.534 E9.50965
G1 X159.501 Y113.533 E9.82495
G1 X157.384 Y116.143 E9.89202
G1 X157.188 Y116.618 E9.90227
G0 F6000 X156.831 Y116.437
G1 F1200 X156.77 Y116.557 E9.90496
G1 X156.449 Y117.101 E9.91756
G1 X156.061 Y117.6 E9.93018
G1 X155.614 Y118.047 E9.94279
G1 X155.113 Y118.433 E9.95541
G1 X154.568 Y118.753 E9.96803
G1 X153.987 Y119.002 E9.98064
G1 X153.379 Y119.176 E9.99326
G1 X152.754 Y119.271 E10.00588
G1 X152.316 Y119.291 E10.01463
G1 X150.819 Y119.292 E10.0445
G1 X150.418 Y119.314 E10.05251
G1 X149.786 Y119.309 E10.06513
G1 X149.159 Y119.224 E10.07775
G1 X148.549 Y119.061 E10.09035
G1 X147.963 Y118.822 E10.10298
G1 X147.413 Y118.511 E10.11559
G1 X146.906 Y118.133 E10.12821
G1 X146.618 Y117.868 E10.13602
G1 X146.447 Y117.698 E10.14084
G1 X146.028 Y117.225 E10.15345
G1 X145.671 Y116.703 E10.16607
G1 X145.384 Y116.14 E10.17868
G1 X145.17 Y115.545 E10.1913
G1 X145.033 Y114.928 E10.20391
G1 X144.974 Y114.298 E10.21654
G1 X144.996 Y113.666 E10.22916
G1 X145.097 Y113.042 E10.24177
G1 X145.276 Y112.436 E10.25438
G1 X145.53 Y111.857 E10.267
G1 X146.038 Y111.066 E10.28576
G1 X146.075 Y111.018 E10.28697
G1 X148.421 Y106.803 E10.38323
G1 X148.496 Y106.54 E10.38869
G1 X148.609 Y106.2 E10.39584
G1 X148.873 Y105.202 E10.41644
G1 X149.319 Y103.635 E10.44896
G1 X149.32 Y103.612 E10.44941
G1 X149.439 Y102.991 E10.46203
G1 X149.636 Y102.391 E10.47464
G1 X149.777 Y102.073 E10.48158
G1 X149.836 Y101.535 E10.49238
G1 X149.983 Y100.92 E10.505
G1 X150.207 Y100.329 E10.51761
G1 X150.326 Y100.106 E10.52265
G1 X150.408 Y99.86 E10.52783
G1 X150.444 Y99.764 E10.52987
G1 X150.801 Y98.458 E10.55689
G1 X150.825 Y98.339 E10.55932
G1 X150.989 Y97.728 E10.57194
G1 X151.057 Y97.562 E10.57552
G1 X151.724 Y95.331 E10.62199
G1 X151.843 Y94.976 E10.62946
G1 X152.235 Y93.508 E10.65978
G1 X152.408 Y92.869 E10.67299
G1 X152.541 Y92.478 E10.68124
G1 X152.618 Y92.145 E10.68806
G1 X152.8 Y91.54 E10.70067
G1 X153.056 Y90.962 E10.71328
G1 X153.466 Y90.306 E10.72872
G1 X153.728 Y89.951 E10.73752
G1 X154.135 Y89.467 E10.75014
G1 X154.599 Y89.038 E10.76275
G1 X155.114 Y88.672 E10.77536
G1 X155.96 Y88.252 E10.79421
G1 X156.033 Y88.224 E10.79577
G1 X156.637 Y88.035 E10.8084
G1 X157.259 Y87.924 E10.82101
G1 X157.824 Y87.892 E10.8323
G1 X158.205 Y87.892 E10.83991
G1 X158.836 Y87.932 E10.85252
G1 X159.457 Y88.051 E10.86514
G1 X159.53 Y88.075 E10.86668
G1 X175.026 Y88.076 E11.17592
G1 X175.213 Y88.02 E11.17981
G1 X175.837 Y87.916 E11.19244
G1 X176.34 Y87.891 E11.20249
G1 X176.709 Y87.891 E11.20985
G1 X177.34 Y87.931 E11.22247
G1 X177.961 Y88.05 E11.23508
G1 X178.566 Y88.249 E11.24779
G1 X178.641 Y88.279 E11.24941
G1 X179.212 Y88.55 E11.26202
G1 X179.744 Y88.891 E11.27463
G1 X180.229 Y89.297 E11.28725
G1 X180.739 Y89.862 E11.30244
G1 X180.988 Y90.184 E11.31056
G1 X181.343 Y90.708 E11.3232
G1 X181.628 Y91.272 E11.33581
G1 X181.812 Y91.772 E11.34644
G1 X181.993 Y92.365 E11.35881
G1 X182.481 Y94.088 E11.39455
G1 X182.869 Y95.472 E11.42323
G1 X182.987 Y95.847 E11.43108
G1 X183.098 Y96.26 E11.43961
G1 X183.143 Y96.463 E11.44376
G1 X183.24 Y96.724 E11.44932
G1 X183.343 Y97.062 E11.45637
G1 X183.662 Y98.207 E11.48009
G1 X183.745 Y98.44 E11.48503
G1 X183.874 Y99.011 E11.49671
G1 X183.887 Y99.089 E11.49829
G1 X184.947 Y102.624 E11.57193
G1 X185.344 Y104.017 E11.60084
G1 X185.447 Y104.341 E11.60762
G1 X185.505 Y104.536 E11.61168
G1 X185.75 Y105.429 E11.63016
G1 X185.808 Y105.593 E11.63363
G1 X185.972 Y106.139 E11.64501
G1 X186.031 Y106.354 E11.64946
G1 X186.101 Y106.63 E11.65514
G1 X188.852 Y111.074 E11.75944
G1 X188.999 Y111.253 E11.76407
G1 X189.335 Y111.789 E11.77669
G1 X189.6 Y112.363 E11.78931
G1 X189.791 Y112.965 E11.80191
G1 X189.904 Y113.587 E11.81453
G1 X189.938 Y114.219 E11.82716
G1 X189.892 Y114.849 E11.83976
G1 X189.766 Y115.469 E11.85239
G1 X189.564 Y116.068 E11.865
G1 X189.288 Y116.636 E11.87761
G1 X188.848 Y117.286 E11.89327
G1 X188.695 Y117.478 E11.89817
G1 X188.271 Y117.946 E11.91077
G1 X187.791 Y118.358 E11.9234
G1 X187.263 Y118.705 E11.93601
G1 X186.695 Y118.983 E11.94862
G1 X186.096 Y119.187 E11.96125
G1 X185.477 Y119.314 E11.97386
G1 X184.847 Y119.362 E11.98647
G1 X184.125 Y119.307 E12.00092
G1 X184.019 Y119.344 E12.00316
G1 X183.4 Y119.474 E12.01578
G1 X182.77 Y119.526 E12.0284
G1 X182.139 Y119.498 E12.041
G1 X181.516 Y119.39 E12.05362
G1 X180.911 Y119.205 E12.06625
G1 X180.335 Y118.945 E12.07886
G1 X179.797 Y118.614 E12.09146
G1 X179.304 Y118.218 E12.10408
G1 X178.752 Y117.624 E12.12027
G1 X178.636 Y117.477 E12.124
G1 X178.276 Y116.957 E12.13662
G1 X177.986 Y116.396 E12.14923
G1 X177.855 Y116.04 E12.1568
G1 X175.492 Y113.134 E12.23154
G1 X159.311 Y113.133 E12.55445
G1 X157.047 Y115.924 E12.62617
G1 X156.831 Y116.437 E12.63728
G0 F6000 X156.475 Y116.255
G1 F1200 X156.414 Y116.375 E12.63996
G1 X156.104 Y116.897 E12.65208
G1 X155.728 Y117.373 E12.66418
G1 X155.293 Y117.795 E12.67628
G1 X154.807 Y118.157 E12.68837
G1 X154.277 Y118.451 E12.70047
G1 X153.712 Y118.673 E12.71258
G1 X153.124 Y118.819 E12.72467
G1 X152.316 Y118.891 E12.74086
G1 X150.815 Y118.892 E12.77082
G1 X150.396 Y118.915 E12.77919
G1 X149.79 Y118.908 E12.79128
G1 X149.189 Y118.822 E12.8034
G1 X148.606 Y118.658 E12.81549
G1 X148.049 Y118.418 E12.82759
G1 X147.529 Y118.107 E12.83968
G1 X146.9 Y117.584 E12.856
G1 X146.729 Y117.414 E12.86082
G1 X146.328 Y116.959 E12.87292
G1 X145.99 Y116.456 E12.88501
G1 X145.722 Y115.912 E12.89712
G1 X145.527 Y115.338 E12.90921
G1 X145.41 Y114.743 E12.92131
G1 X145.372 Y114.138 E12.93341
G1 X145.414 Y113.533 E12.94551
G1 X145.535 Y112.939 E12.95761
G1 X145.733 Y112.366 E12.96971
G1 X146.005 Y111.824 E12.98181
G1 X146.352 Y111.313 E12.99414
G1 X146.412 Y111.237 E12.99607
G1 X148.797 Y106.951 E13.09395
G1 X148.88 Y106.654 E13.10011
G1 X148.991 Y106.319 E13.10715
G1 X149.257 Y105.312 E13.12793
G1 X149.716 Y103.698 E13.16142
G1 X149.72 Y103.638 E13.16262
G1 X149.839 Y103.044 E13.17471
G1 X150.035 Y102.47 E13.18681
G1 X150.166 Y102.172 E13.19331
G1 X150.239 Y101.554 E13.20573
G1 X150.388 Y100.967 E13.21782
G1 X150.613 Y100.404 E13.22991
G1 X150.701 Y100.244 E13.23356
G1 X150.782 Y100.001 E13.23867
G1 X150.827 Y99.881 E13.24123
G1 X151.193 Y98.542 E13.26893
G1 X151.218 Y98.418 E13.27145
G1 X151.376 Y97.832 E13.28357
G1 X151.442 Y97.675 E13.28696
G1 X152.108 Y95.446 E13.33339
G1 X152.225 Y95.098 E13.34072
